svg/u1f34b.svg

<svg viewBox="0 0 128 128" xmlns="http://www.w3.org/2000/svg">
  <path d="M24,29.48L13.08,54.15l0.91,29.83c0,0,6.07,19.56,6.37,19.77c0.3,0.2,1.31-0.25,3.74-4.6 s8.6-13.05,9.1-15.17c0.51-2.12,0.71-17.39,0.71-17.39l1.42-32.87L24,29.48z" fill="#757F3E"/>
  <path d="M24.03,30.48c0,0-19.94,19.17-19.95,37.63c0,12.85,6.27,19.92,7.79,22.45 c1.52,2.53,5.06,7.99,5.87,9.1s1.79,3.21,2.49,4.02c0.71,0.81-0.07-5.34-0.88-7.86c-0.81-2.53-3.02-16.26-3.03-25.28 c-0.01-9.88,0.83-21.85,4.28-29.1c3.81-8,7.39-11.78,7.39-11.78L24.03,30.48z" fill="#94A61D"/>
  <path d="M30.68,33.02c0,0-5.87,2.93-6.07,6.47s1.62,7.18,2.33,12.03s0.71,11.02,0.81,12.84 C27.84,66.19,33,78.53,33,78.53l32.06,28.72l40.15,1.21c0,0,12.64,0.71,14.26-1.21s4.68-6.23,5.06-9.1 c0.71-5.36-1.21-8.19-2.63-16.79c-0.6-3.66-0.81-17.98-6.27-29.43c-6.17-12.94-18.41-24.27-43.18-27.51 c-18.01-2.35-27.1,1.42-29.73,1.01c-2.63-0.4-4.75-1.62-7.79-0.2C31.04,27.04,30.68,33.02,30.68,33.02z" fill="#FCC219"/>
  <path d="M110.77,112.2c4.77,0.16,7.28-2.53,8.29-3.64c1.01-1.11,3.04-4.93,3.04-4.93s-3.45,2.91-7.39,2.7 c-3.94-0.2-9.2-1.21-12.34-1.52s-13.05,1.92-25.08-0.71c-12.03-2.63-25.31-9.28-34.08-17.9c-11.83-11.63-15.6-24.64-15.6-24.64 s-0.58,16.14,10.75,30.91s22.86,20.02,37.01,21.54c16,1.71,24.98-1.92,27.3-2.02C105.01,111.9,107.84,112.1,110.77,112.2z" fill="#F7932A"/>
  <path d="M53.03,35.34c-0.3,3.14,1.62,5.46,3.94,5.87c2.5,0.43,6.27-0.2,11.83,2.93 c5.56,3.14,13.37,10.96,18,6.78c4.25-3.84-2.63-10.92-5.06-13.05c-2.43-2.12-8.49-7.58-19.92-7.79 C55.25,29.97,53.23,33.22,53.03,35.34z" fill="#FFEBC9"/>
  <path d="M20.36,17.34c-0.02-0.75-0.71-4.95-2.72-3.98c-3.47,1.66-4.78,4.1-3.65,6.92 c1.42,3.54,3.8,5.84,6.37,8.49c1.97,2.04,5.87,6.17,7.28,7.38c1.42,1.21,3.51,2.86,5.97-0.3c2.62-3.37,0.85-3.98-1.38-6.11 S29,26.9,24.71,22.5C22.56,20.29,20.38,18.09,20.36,17.34z" fill="#757F3E"/>
</svg>

<svg viewBox="0 0 128 128" xmlns="http://www.w3.org/2000/svg">
  <defs/>
  <path d="M24,29.48 L13.08,54.15 L13.99,83.98 C13.99,83.98 20.06,103.54 20.36,103.75 C20.66,103.95 21.67,103.5 24.1,99.15 C26.53,94.8 32.7,86.1 33.2,83.98 C33.71,81.86 33.91,66.59 33.91,66.59 L35.33,33.72 L24,29.48 Z" fill="#757F3E"/>
  <path d="M24.03,30.48 C24.03,30.48 4.09,49.65 4.08,68.11 C4.08,80.96 10.35,88.03 11.87,90.56 C13.39,93.09 16.93,98.55 17.74,99.66 C18.55,100.77 19.53,102.87 20.23,103.68 C20.94,104.49 20.16,98.34 19.35,95.82 C18.54,93.29 16.33,79.56 16.32,70.54 C16.31,60.66 17.15,48.69 20.6,41.44 C24.41,33.44 27.99,29.66 27.99,29.66 L24.03,30.48 Z" fill="#94A61D"/>
  <path d="M30.68,33.02 C30.68,33.02 24.81,35.95 24.61,39.49 C24.41,43.03 26.23,46.67 26.94,51.52 C27.65,56.37 27.65,62.54 27.75,64.36 C27.84,66.19 33,78.53 33,78.53 L65.06,107.25 L105.21,108.46 C105.21,108.46 117.85,109.17 119.47,107.25 C121.09,105.33 124.15,101.02 124.53,98.15 C125.24,92.79 123.32,89.96 121.9,81.36 C121.3,77.7 121.09,63.38 115.63,51.93 C109.46,38.99 97.22,27.66 72.45,24.42 C54.44,22.07 45.35,25.84 42.72,25.43 C40.09,25.03 37.97,23.81 34.93,25.23 C31.04,27.04 30.68,33.02 30.68,33.02 Z" fill="#FCC219"/>
  <path d="M110.77,112.2 C115.54,112.36 118.05,109.67 119.06,108.56 C120.07,107.45 122.1,103.63 122.1,103.63 C122.1,103.63 118.65,106.54 114.71,106.33 C110.77,106.13 105.51,105.12 102.37,104.81 C99.23,104.5 89.32,106.73 77.29,104.1 C65.26,101.47 51.98,94.82 43.21,86.2 C31.38,74.57 27.61,61.56 27.61,61.56 C27.61,61.56 27.03,77.7 38.36,92.47 C49.69,107.24 61.22,112.49 75.37,114.01 C91.37,115.72 100.35,112.09 102.67,111.99 C105.01,111.9 107.84,112.1 110.77,112.2 Z" fill="#F7932A"/>
  <path d="M53.03,35.34 C52.73,38.48 54.65,40.8 56.97,41.21 C59.47,41.64 63.24,41.01 68.8,44.14 C74.36,47.28 82.17,55.1 86.8,50.92 C91.05,47.08 84.17,40 81.74,37.87 C79.31,35.75 73.25,30.29 61.82,30.08 C55.25,29.97 53.23,33.22 53.03,35.34 Z" fill="#FFEBC9"/>
  <path d="M20.36,17.34 C20.34,16.59 19.65,12.39 17.64,13.36 C14.17,15.02 12.86,17.46 13.99,20.28 C15.41,23.82 17.79,26.12 20.36,28.77 C22.33,30.81 26.23,34.94 27.64,36.15 C29.06,37.36 31.15,39.01 33.61,35.85 C36.23,32.48 34.46,31.87 32.23,29.74 C30,27.61 29,26.9 24.71,22.5 C22.56,20.29 20.38,18.09 20.36,17.34 Z" fill="#757F3E"/>
</svg>
